public/images/transaction_bg.svg

<svg width="572" height="291" viewBox="0 0 572 291" fill="none" xmlns="http://www.w3.org/2000/svg">
<path d="M625.494 -6.5791H-18.4963V388.414H625.494V-6.5791Z" fill="#EA526F"/>
<path fill-rule="evenodd" clip-rule="evenodd" d="M254.698 85.0361C254.698 85.0361 292.778 76.9582 270.188 182.777C258.733 236.434 290.493 268.212 317.048 267.691C343.601 267.17 342.039 209.866 328.502 182.777C314.965 155.689 268.988 49.221 307.155 -4.23983C343.601 -55.2918 387.771 2.06055 390.461 23.3701C396.709 72.8592 367.552 127.037 375.362 158.814C383.172 190.592 398.792 219.764 424.305 219.243C449.817 218.722 480.016 174.963 474.289 127.037C468.561 79.1104 461.272 -33.4124 536.248 -43.8313C611.224 -54.2499 632.529 24.8171 629.968 45.7705C621.117 118.181 591.989 135.506 548.223 233.309C483.3 378.394 460.362 402.226 390.461 417.203C319.736 432.358 246.367 319.267 230.096 257.405C213.825 195.544 197.945 85.2283 254.698 85.0361Z" fill="#FF8A5B"/>
<path fill-rule="evenodd" clip-rule="evenodd" d="M-113.681 42.6454C-113.681 42.6454 97.3312 202.895 112.585 324.992C127.839 447.087 61.7389 453.446 24.8753 425.466C-11.9883 397.486 -81.5931 302.781 -107.835 194.426C-134.076 86.0705 -211.265 207.97 -198.248 275.041C-185.232 342.112 -175.022 541.289 -113.681 541.289C-52.3398 541.289 503.394 607.824 397.141 503.644C346.295 453.788 293.415 441.578 250.704 404.95C207.993 368.322 132.741 156.689 100.199 69.1889C67.6572 -18.3127 -41.2986 -205.525 -107.835 -207.56C-174.371 -209.595 -221.801 -55.1178 -113.681 42.6471V42.6454Z" fill="#FF8A5B"/>
</svg>

<svg width="572" height="291" fill="none" xmlns="http://www.w3.org/2000/svg"><path d="M625.494-6.58h-643.99v394.994h643.99V-6.579z" fill="#EA526F"/><path fill-rule="evenodd" clip-rule="evenodd" d="M254.698 85.036s38.08-8.078 15.49 97.741c-11.455 53.657 20.305 85.435 46.86 84.914 26.553-.521 24.991-57.825 11.454-84.914-13.537-27.088-59.514-133.556-21.347-187.017 36.446-51.052 80.616 6.3 83.306 27.61 6.248 49.49-22.909 103.667-15.099 135.444 7.81 31.778 23.43 60.95 48.943 60.429 25.512-.521 55.711-44.28 49.984-92.206-5.728-47.927-13.017-160.45 61.959-170.868 74.976-10.419 96.281 68.648 93.72 89.602-8.851 72.41-37.979 89.735-81.745 187.538-64.923 145.085-87.861 168.917-157.762 183.894-70.725 15.155-144.094-97.936-160.365-159.798-16.271-61.861-32.151-172.177 24.602-172.369z" fill="#FF8A5B"/><path fill-rule="evenodd" clip-rule="evenodd" d="M-113.681 42.645s211.012 160.25 226.266 282.347c15.254 122.095-50.846 128.454-87.71 100.474-36.863-27.98-106.468-122.685-132.71-231.04-26.241-108.355-103.43 13.544-90.413 80.615 13.016 67.071 23.226 266.248 84.567 266.248 61.341 0 617.075 66.535 510.822-37.645-50.846-49.856-103.726-62.066-146.437-98.694-42.711-36.628-117.963-248.261-150.505-335.761C67.657-18.313-41.299-205.525-107.835-207.56c-66.536-2.035-113.966 152.442-5.846 250.207v-.002z" fill="#FF8A5B"/></svg>
